!!!SOCIAL_FUNCTION:	miscellaneous songs
!!!PDT:	1922
!!!OTL: No_109_Song_Around_a_Rawhide.krn
!!!REG: Southwest
!!!LANG: Non-Tone
!!!LING_GROUP: Uto-Aztecan
**kern	**kern
*staff2	*staff1
=1-	=1-
*clefF4	*clefF4
*k[b-e-]	*k[b-e-]
*M2/4	*M2/4
12GG^/L	8.B-\L
12GG/J	.
12r	.
.	16c\Jk
12GG^/L	4B-\
12GG/J	.
12r	.
=2	=2
2r	4B-\
.	12B-\L
.	12B-\
.	12B-\J
=3	=3
2r	8.B-\L
.	16B-\Jk
.	4F\
=4	=4
2r	4F\
.	4F\
=5	=5
2r	8.B-\L
.	16c\Jk
.	4B-\
=6	=6
2r	4B-\
.	12B-\L
.	12B-\
.	12B-\J
=7	=7
2r	8.B-\L
.	16B-\Jk
.	4F\
=8	=8
2r	4F\
.	12En\L
.	12E\
.	12E\J
=9	=9
2r	8.F\L
.	16G\Jk
.	4F\
=10	=10
2r	4F\
.	12En\L
.	12E\
.	12E\J
=11	=11
2r	8.F\L
.	16E-\Jk
.	8D/L
.	8BB-/J
=12	=12
2r	16D\LK
.	8.D\J
.	4BB-/
=13	=13
2r	8.D\L
.	16F\Jk
.	8.D/L
.	16BB-/Jk
=14	=14
2r	16D\LK
.	8.D\J
.	12BB-/L
.	12BB-/
.	12BB-/J
=15	=15
2r	4.BB-/
.	8BB-/
=16||	=16||
*M3/4	*M3/4
2.r	2.BB-/
=17||	=17||
*M2/4	*M2/4
2r	16D/LK
.	8.BB-/J
.	8.BB-/L
.	16D/Jk
=18	=18
2r	16D\LK
.	8.D\J
.	4BB-/
=19	=19
2r	8.F\L
.	16G\Jk
.	4F\
=20	=20
2r	4F\
.	12En\L
.	12E\
.	12E\J
=21	=21
2r	8.F\L
.	16E-\Jk
.	8D/L
.	8BB-/J
=22	=22
2r	16D\LK
.	8.D\J
.	4BB-/
=23	=23
2r	8.D\L
.	16F\Jk
.	8.D/L
.	16BB-/Jk
=24	=24
2r	16D\LK
.	8.D\J
.	12BB-/L
.	12BB-/
.	12BB-/J
=25	=25
2r	4.BB-/
.	8BB-/
=26	=26
2r	2BB-/
=27	=27
2r	2BB-/
==	==
*-	*-
